common/src/main/resources/icons/debugger/classLevelWatch.svg

<svg xmlns="http://www.w3.org/2000/svg" width="16" height="16" fill="#4FC3F7" data-big="true" viewBox="0 0 24 24"><path d="M21 16.5c0 .38-.21.71-.53.88l-7.9 4.44c-.16.12-.36.18-.57.18s-.41-.06-.57-.18l-7.9-4.44A.99.99 0 0 1 3 16.5v-9c0-.38.21-.71.53-.88l7.9-4.44c.16-.12.36-.18.57-.18s.41.06.57.18l7.9 4.44c.32.17.53.5.53.88zM12 4.15 6.04 7.5 12 10.85l5.96-3.35z"/><path fill="#4A148C" d="M7 17H4C2.38 17 .96 15.74.76 14.14l-.5-2.99C.15 10.3.39 9.5.91 8.92S2.19 8 3 8h6c.83 0 1.58.35 2.06.96.11.15.21.31.29.49.43-.09.87-.09 1.29 0 .08-.18.18-.34.3-.49C13.41 8.35 14.16 8 15 8h6c.81 0 1.57.34 2.09.92.51.58.75 1.38.65 2.19l-.51 3.07C23.04 15.74 21.61 17 20 17h-3c-1.56 0-3.08-1.19-3.46-2.7l-.9-2.71c-.38-.28-.91-.28-1.29 0l-.92 2.78C10.07 15.82 8.56 17 7 17"/></svg>

<!--
  - The MIT License (MIT)
  -
  - Copyright (c) 2015-2024 Elior "Mallowigi" Boukhobza
  -
  - Permission is hereby granted, free of charge, to any person obtaining a copy
  - of this software and associated documentation files (the "Software"), to deal
  - in the Software without restriction, including without limitation the rights
  - to use, copy, modify, merge, publish, distribute, sublicense, and/or sell
  - copies of the Software, and to permit persons to whom the Software is
  - furnished to do so, subject to the following conditions:
  -
  - The above copyright notice and this permission notice shall be included in all
  - copies or substantial portions of the Software.
  -
  - THE SOFTWARE IS PROVIDED "AS IS", WITHOUT WARRANTY OF ANY KIND, EXPRESS OR
  - IMPLIED, INCLUDING BUT NOT LIMITED TO THE WARRANTIES OF MERCHANTABILITY,
  - FITNESS FOR A PARTICULAR PURPOSE AND NONINFRINGEMENT. IN NO EVENT SHALL THE
  - AUTHORS OR COPYRIGHT HOLDERS BE LIABLE FOR ANY CLAIM, DAMAGES OR OTHER
  - LIABILITY, WHETHER IN AN ACTION OF CONTRACT, TORT OR OTHERWISE, ARISING FROM,
  - OUT OF OR IN CONNECTION WITH THE SOFTWARE OR THE USE OR OTHER DEALINGS IN THE
  - SOFTWARE.
  -->


<svg data-big="true" xmlns="http://www.w3.org/2000/svg" version="1.1" width="16px" height="16px" viewBox="0 0 24 24"
     fill="#4FC3F7">
  <path
    d="M21,16.5C21,16.88 20.79,17.21 20.47,17.38L12.57,21.82C12.41,21.94 12.21,22 12,22C11.79,22 11.59,21.94 11.43,21.82L3.53,17.38C3.21,17.21 3,16.88 3,16.5V7.5C3,7.12 3.21,6.79 3.53,6.62L11.43,2.18C11.59,2.06 11.79,2 12,2C12.21,2 12.41,2.06 12.57,2.18L20.47,6.62C20.79,6.79 21,7.12 21,7.5V16.5M12,4.15L6.04,7.5L12,10.85L17.96,7.5L12,4.15Z"/>
  <path fill="#4A148C"
        d="M7,17H4C2.38,17 0.96,15.74 0.76,14.14L0.26,11.15C0.15,10.3 0.39,9.5 0.91,8.92C1.43,8.34 2.19,8 3,8H9C9.83,8 10.58,8.35 11.06,8.96C11.17,9.11 11.27,9.27 11.35,9.45C11.78,9.36 12.22,9.36 12.64,9.45C12.72,9.27 12.82,9.11 12.94,8.96C13.41,8.35 14.16,8 15,8H21C21.81,8 22.57,8.34 23.09,8.92C23.6,9.5 23.84,10.3 23.74,11.11L23.23,14.18C23.04,15.74 21.61,17 20,17H17C15.44,17 13.92,15.81 13.54,14.3L12.64,11.59C12.26,11.31 11.73,11.31 11.35,11.59L10.43,14.37C10.07,15.82 8.56,17 7,17Z"/>
</svg>
